X: 6245
T: Carolan's Cap
R: polka
M: 2/4
K: Dmajor
G/F/E/D/ FA|d>e fe|dB AF|E2 EA/G/|
G/F/E/D/ FA|dd ef|FA e/d/B|A2 A||
fa ab|af a/f/e/d/|fa ba|fe ef/a/|
ba/f/ a/f/e/d/|e/d/e/f/ af/e/|dc/d/ ed|BA A||
A-part ~|EG d/c/B|C2- C||
B-part ~|cB/c/ d/c/A|AG G||F|EG d/c/B|C2- C||
A-part ~|FA e/d/c|d2- d||
B-part ~|dc/d/ ed|BA A||G|FA e/d/c|d2- d||

